T: Shoe The Donkey
M: 3/4
L: 1/8
K: Gmaj
d2 B2 d2 | g4 d2 | f2 e2 c2 | A4 G2 |F2 A2 c2 | f4 e2 |[1 ed ^cd ed | B4 :|[2 ed cA FD | G4 |]d2 B2 d2 | g4 de | f2 e2 c2 | A4 AG | F2 A2 d2 | f4 fe |[1 de fe dc| B4 Bc:|[2 de dc AF | G4 Bc |]d2 b2 d2 | g4 dg | f2 e2 d2 | A3 B AG |F2 A2 d2 | f4 fe |[1 d2 cd ed | B4 :|[2 d2 cd ef | g4 |]
